public/images/moon.svg

<svg width="32" height="32" viewBox="0 0 32 32" fill="none" xmlns="http://www.w3.org/2000/svg">
<path d="M26.1274 22.0838C27.0749 22.0181 27.791 23.0403 27.1607 23.7503C24.7338 26.4862 21.1922 28.21 17.2476 28.21C9.9312 28.21 4 22.2788 4 14.9624C4 9.77045 6.9868 5.27582 11.336 3.10375C12.1857 2.67929 12.9845 3.63683 12.674 4.53422C12.1922 5.92845 11.947 7.39344 11.9485 8.86856C11.9485 16.1849 17.8797 22.1161 25.1961 22.1161C25.5093 22.1161 25.8198 22.1053 26.1274 22.0838Z" fill="white"/>
<path d="M17.5142 6.94285C17.6299 6.88946 17.7242 6.79953 17.782 6.68735L18.4926 5.30889C18.7119 4.88324 19.3358 4.90148 19.5291 5.33897L20.1114 6.65689C20.1693 6.78776 20.2754 6.89217 20.4084 6.94906L21.6554 7.48281C22.1149 7.67946 22.1149 8.32075 21.6554 8.51722L20.4084 9.05097C20.2754 9.1079 20.1692 9.21237 20.1114 9.34331L19.5291 10.6609C19.3358 11.0985 18.7119 11.1168 18.4926 10.6911L17.782 9.31267C17.7242 9.20042 17.6299 9.11042 17.5142 9.05698L16.3298 8.51064C15.8901 8.30778 15.8901 7.69224 16.3298 7.48939L17.5142 6.94285Z" fill="white"/>
<path d="M21.0094 14.2952C21.0866 14.2596 21.1494 14.1997 21.188 14.1249L21.6617 13.2059C21.8079 12.9222 22.2239 12.9343 22.3527 13.226L22.7409 14.1046C22.7795 14.1918 22.8503 14.2614 22.9389 14.2994L23.7703 14.6552C24.0766 14.7863 24.0766 15.2138 23.7703 15.3448L22.9389 15.7006C22.8502 15.7386 22.7795 15.8082 22.7409 15.8955L22.3527 16.7739C22.2239 17.0657 21.8079 17.0779 21.6617 16.7941L21.188 15.8751C21.1495 15.8003 21.0866 15.7403 21.0094 15.7047L20.2199 15.3404C19.9267 15.2052 19.9267 14.7948 20.2199 14.6596L21.0094 14.2952Z" fill="white"/>
<path d="M26.5047 10.6476C26.5433 10.6298 26.5747 10.5998 26.594 10.5625L26.8309 10.103C26.904 9.96108 27.1119 9.96716 27.1764 10.113L27.3705 10.5523C27.3898 10.5959 27.4251 10.6307 27.4695 10.6497L27.8851 10.8276C28.0383 10.8932 28.0383 11.1069 27.8851 11.1724L27.4695 11.3503C27.4251 11.3693 27.3897 11.4041 27.3705 11.4478L27.1764 11.887C27.1119 12.0328 26.904 12.0389 26.8309 11.897L26.594 11.4376C26.5747 11.4001 26.5433 11.3701 26.5047 11.3523L26.1099 11.1702C25.9634 11.1026 25.9634 10.8974 26.1099 10.8298L26.5047 10.6476Z" fill="white"/>
</svg>

<svg width="32" height="32" fill="none" xmlns="http://www.w3.org/2000/svg"><path d="M26.127 22.084c.948-.066 1.664.956 1.034 1.666a13.214 13.214 0 0 1-9.913 4.46C9.93 28.21 4 22.279 4 14.962 4 9.77 6.987 5.276 11.336 3.104c.85-.425 1.649.533 1.338 1.43a13.23 13.23 0 0 0-.726 4.335c0 7.316 5.932 13.247 13.248 13.247.313 0 .624-.01.931-.032Z" fill="#fff"/><path d="M17.514 6.943a.569.569 0 0 0 .268-.256l.71-1.378a.577.577 0 0 1 1.037.03l.582 1.318c.058.13.164.235.297.292l1.247.534a.56.56 0 0 1 0 1.034l-1.247.534a.569.569 0 0 0-.297.292l-.582 1.318a.577.577 0 0 1-1.036.03l-.711-1.378a.57.57 0 0 0-.268-.256l-1.184-.546a.56.56 0 0 1 0-1.022l1.184-.546ZM21.01 14.295a.38.38 0 0 0 .178-.17l.474-.92a.385.385 0 0 1 .69.021l.389.879a.38.38 0 0 0 .198.194l.831.356a.374.374 0 0 1 0 .69l-.831.356a.38.38 0 0 0-.198.194l-.388.879a.385.385 0 0 1-.691.02l-.474-.919a.38.38 0 0 0-.179-.17l-.79-.365a.373.373 0 0 1 0-.68l.79-.365ZM26.505 10.648a.19.19 0 0 0 .089-.085l.237-.46a.192.192 0 0 1 .345.01l.195.44a.19.19 0 0 0 .099.097l.415.178a.187.187 0 0 1 0 .344l-.416.178a.189.189 0 0 0-.099.098l-.194.439a.192.192 0 0 1-.345.01l-.237-.46a.19.19 0 0 0-.09-.085l-.394-.182a.187.187 0 0 1 0-.34l.395-.182Z" fill="#fff"/></svg>
